assets/graphics/logo.svg

<svg viewBox="0 0 500 500" xmlns="http://www.w3.org/2000/svg" xml:space="preserve" style="fill-rule:evenodd;clip-rule:evenodd;stroke-linejoin:round;stroke-miterlimit:2"><circle cx="156.124" cy="156.124" r="156.124" style="fill:#fafad2" transform="scale(1.60129)"/><path d="M147.481 169.97c-10.656 26.208-18.144 51.552-18.144 69.12 0 25.632 15.264 37.152 44.352 37.44 26.784.288 57.6-9.792 85.248-42.048-7.2-5.472-13.824-12.384-29.664-28.224-11.808 16.128-23.616 28.224-37.728 28.224-6.624 0-9.792-3.168-9.792-10.08 0-9.504 4.32-25.056 17.28-54.72 33.984 0 65.088.288 75.168 1.152 3.456-13.824 8.928-28.512 13.536-42.048-10.08.864-38.592 1.152-70.56 1.152 4.896-10.368 10.944-21.888 16.992-34.848-18.72 3.456-36.576 4.608-54.72 4.608-4.608 9.504-9.792 19.872-14.688 30.24-24.192 0-43.776-.864-50.688-1.152-2.016 13.824-7.776 27.936-12.384 42.048 6.624-.288 24.192-.864 45.792-.864Z" style="fill:#222;fill-rule:nonzero" transform="matrix(1.34305 0 0 1.36708 -11.51 -4.022)"/></svg>

<?xml version="1.0" encoding="UTF-8" standalone="no"?>
<!DOCTYPE svg PUBLIC "-//W3C//DTD SVG 1.1//EN" "http://www.w3.org/Graphics/SVG/1.1/DTD/svg11.dtd">
<svg width="100%" height="100%" viewBox="0 0 500 500" version="1.1" xmlns="http://www.w3.org/2000/svg" xmlns:xlink="http://www.w3.org/1999/xlink" xml:space="preserve" xmlns:serif="http://www.serif.com/" style="fill-rule:evenodd;clip-rule:evenodd;stroke-linejoin:round;stroke-miterlimit:2;">
    <g>
        <g transform="matrix(1.60129,0,0,1.60129,0,0)">
            <circle cx="156.124" cy="156.124" r="156.124" style="fill:rgb(250,250,210);"/>
        </g>
        <g transform="matrix(1.34305,0,0,1.36708,-11.51,-4.02176)">
            <path d="M147.481,169.97C136.825,196.178 129.337,221.522 129.337,239.09C129.337,264.722 144.601,276.242 173.689,276.53C200.473,276.818 231.289,266.738 258.937,234.482C251.737,229.01 245.113,222.098 229.273,206.258C217.465,222.386 205.657,234.482 191.545,234.482C184.921,234.482 181.753,231.314 181.753,224.402C181.753,214.898 186.073,199.346 199.033,169.682C233.017,169.682 264.121,169.97 274.201,170.834C277.657,157.01 283.129,142.322 287.737,128.786C277.657,129.65 249.145,129.938 217.177,129.938C222.073,119.57 228.121,108.05 234.169,95.09C215.449,98.546 197.593,99.698 179.449,99.698C174.841,109.202 169.657,119.57 164.761,129.938C140.569,129.938 120.985,129.074 114.073,128.786C112.057,142.61 106.297,156.722 101.689,170.834C108.313,170.546 125.881,169.97 147.481,169.97Z" style="fill:rgb(34,34,34);fill-rule:nonzero;"/>
        </g>
    </g>
</svg>
